X:2
T:Jingle Bells
C:Christmas
M:4/4
K:G
L: 1/8
"G" BB B2 "G" BB B2 | "G" BdG>A "G" B4 |
w: Jin-gle bells, Jin-gle bells, Jin-gle all the way,
"C" ccc>c "G" cB BB/B/ | "D" BAAB "D" A2 d2 |
w: Oh what fun it is to ride in a one-horse op-en sleigh
"G" BB B2 "G" BB B2 | "G" BdG>A "G" B4 |
w: Jin-gle bells, Jin-gle bells, Jin-gle all the way,
"C" ccc>c "G" cB BB/B/  | "D" ddcA "G" G4 |]
w: Oh what fun it is to ride in a one-horse op-en sleigh
"G" DBAG "G" D3 D/D/ | "G" DBAG "C" E4 |
w: Dash-ing through the snow in a one-horse op-en sleigh
"C" EcBA "D" F4 | "D" ddcA "G" B3 z |]
w: O'er the fields we go,- laugh-ing all the way,
"G" DBAG "G" D4 | "G7" DBAG "C" E3 E |
w: Bells on bob tail bright, mak-ing spir-its light,  what
"C" EcBA "D" dddd | "D" edcA "G" G2 d2 |]
w: fun it is to laugh and sing a sleigh-ing song to-night, oh


